src/scalable/apps/internet-mail.svg

<?xml version="1.0" encoding="UTF-8" standalone="no"?>
<svg
   xmlns:dc="http://purl.org/dc/elements/1.1/"
   xmlns:cc="http://creativecommons.org/ns#"
   xmlns:rdf="http://www.w3.org/1999/02/22-rdf-syntax-ns#"
   xmlns:svg="http://www.w3.org/2000/svg"
   xmlns="http://www.w3.org/2000/svg"
   xmlns:xlink="http://www.w3.org/1999/xlink"
   xmlns:sodipodi="http://sodipodi.sourceforge.net/DTD/sodipodi-0.dtd"
   xmlns:inkscape="http://www.inkscape.org/namespaces/inkscape"
   id="svg4532"
   height="64"
   width="64"
   version="1.1"
   sodipodi:docname="kmail.svg"
   inkscape:version="0.92.4 (5da689c313, 2019-01-14)">
  <sodipodi:namedview
     pagecolor="#ffffff"
     bordercolor="#666666"
     borderopacity="1"
     objecttolerance="10"
     gridtolerance="10"
     guidetolerance="10"
     inkscape:pageopacity="0"
     inkscape:pageshadow="2"
     inkscape:window-width="1366"
     inkscape:window-height="711"
     id="namedview115"
     showgrid="true"
     inkscape:zoom="3.6875001"
     inkscape:cx="24.425751"
     inkscape:cy="43.221972"
     inkscape:window-x="0"
     inkscape:window-y="27"
     inkscape:window-maximized="1"
     inkscape:current-layer="svg4532"
     inkscape:snap-bbox="true"
     inkscape:snap-midpoints="true"
     inkscape:snap-smooth-nodes="true"
     inkscape:bbox-paths="true"
     inkscape:bbox-nodes="true"
     inkscape:snap-bbox-edge-midpoints="true"
     inkscape:snap-nodes="false">
    <inkscape:grid
       type="xygrid"
       id="grid938" />
  </sodipodi:namedview>
  <defs
     id="defs4534">
    <radialGradient
       gradientTransform="matrix(2.003784,0,0,1.4,27.98813,-17.4)"
       gradientUnits="userSpaceOnUse"
       xlink:href="#linearGradient3688-166-749-654"
       id="radialGradient2873-966-168-714"
       fy="43.5"
       fx="4.9929786"
       r="2.5"
       cy="43.5"
       cx="4.9929786" />
    <linearGradient
       id="linearGradient3688-166-749-654">
      <stop
         offset="0"
         style="stop-color:#181818;stop-opacity:1"
         id="stop3088" />
      <stop
         offset="1"
         style="stop-color:#181818;stop-opacity:0"
         id="stop3090" />
    </linearGradient>
    <radialGradient
       gradientTransform="matrix(2.003784,0,0,1.4,-20.01187,-104.4)"
       gradientUnits="userSpaceOnUse"
       xlink:href="#linearGradient3688-166-749-654"
       id="radialGradient2875-742-326-419"
       fy="43.5"
       fx="4.9929786"
       r="2.5"
       cy="43.5"
       cx="4.9929786" />
    <linearGradient
       gradientUnits="userSpaceOnUse"
       xlink:href="#linearGradient3702-501-757-795"
       id="linearGradient2877-634-617-908"
       y2="39.999443"
       x2="25.058096"
       y1="47.027729"
       x1="25.058096" />
    <linearGradient
       id="linearGradient3702-501-757-795">
      <stop
         offset="0"
         style="stop-color:#181818;stop-opacity:0"
         id="stop3100" />
      <stop
         offset="0.5"
         style="stop-color:#181818;stop-opacity:1"
         id="stop3102" />
      <stop
         offset="1"
         style="stop-color:#181818;stop-opacity:0"
         id="stop3104" />
    </linearGradient>
    <radialGradient
       gradientTransform="matrix(-1.2222639e-7,6.8170169,-13.429846,-2.4079176e-7,240.43183,-79.46237)"
       gradientUnits="userSpaceOnUse"
       xlink:href="#linearGradient4718"
       id="radialGradient5521-1"
       fy="9.9571075"
       fx="8.3363533"
       r="12.671875"
       cy="9.9571075"
       cx="8.8665838" />
    <linearGradient
       id="linearGradient4718">
      <stop
         id="stop4720"
         style="stop-color:#fff3cb;stop-opacity:1"
         offset="0" />
      <stop
         id="stop4722"
         style="stop-color:#fdde76;stop-opacity:1"
         offset="0.31324482" />
      <stop
         id="stop4724"
         style="stop-color:#f9c440;stop-opacity:1"
         offset="0.69725084" />
      <stop
         id="stop4726"
         style="stop-color:#e48b20;stop-opacity:1"
         offset="1" />
    </linearGradient>
    <linearGradient
       gradientTransform="matrix(1.0222223,0,0,0.84848482,81.004072,-12.10382)"
       gradientUnits="userSpaceOnUse"
       xlink:href="#linearGradient3600"
       id="linearGradient4045"
       y2="45.243549"
       x2="20.052792"
       y1="10.636821"
       x1="20.052792" />
    <linearGradient
       id="linearGradient3600">
      <stop
         offset="0"
         style="stop-color:#f4f4f4;stop-opacity:1"
         id="stop3602" />
      <stop
         offset="1"
         style="stop-color:#dbdbdb;stop-opacity:1"
         id="stop3604" />
    </linearGradient>
    <linearGradient
       spreadMethod="reflect"
       gradientTransform="matrix(1.0362862,0,0,0.89403617,80.666786,-14.930853)"
       gradientUnits="userSpaceOnUse"
       xlink:href="#linearGradient3866"
       id="linearGradient4042"
       y2="15.737678"
       x2="25.525208"
       y1="30.188753"
       x1="25.525208" />
    <linearGradient
       id="linearGradient3866">
      <stop
         offset="0"
         style="stop-color:#a0a0a0;stop-opacity:1"
         id="stop3868" />
      <stop
         offset="0.5"
         style="stop-color:#8f8f8f;stop-opacity:0.63478261"
         id="stop3872" />
      <stop
         offset="1"
         style="stop-color:#9d9d9d;stop-opacity:0"
         id="stop3870" />
    </linearGradient>
    <linearGradient
       spreadMethod="reflect"
       gradientTransform="matrix(1.0362862,0,0,0.89403617,80.666786,-13.268101)"
       gradientUnits="userSpaceOnUse"
       xlink:href="#linearGradient3333-4"
       id="linearGradient4039"
       y2="15.737678"
       x2="25.525208"
       y1="30.188753"
       x1="25.525208" />
    <linearGradient
       id="linearGradient3333-4">
      <stop
         offset="0"
         style="stop-color:#ffffff;stop-opacity:1"
         id="stop3335-4" />
      <stop
         offset="1"
         style="stop-color:#ffffff;stop-opacity:0"
         id="stop3337-7" />
    </linearGradient>
    <linearGradient
       gradientTransform="matrix(1.0342251,0,0,0.95412236,80.815758,-14.703672)"
       gradientUnits="userSpaceOnUse"
       xlink:href="#linearGradient3495"
       id="linearGradient4036"
       y2="20.443331"
       x2="23.903786"
       y1="35.75"
       x1="23.903786" />
    <linearGradient
       id="linearGradient3495">
      <stop
         offset="0"
         style="stop-color:#000000;stop-opacity:1"
         id="stop3497" />
      <stop
         offset="0.5"
         style="stop-color:#000000;stop-opacity:0.49803922"
         id="stop3874" />
      <stop
         offset="1"
         style="stop-color:#000000;stop-opacity:0"
         id="stop3499" />
    </linearGradient>
    <linearGradient
       spreadMethod="reflect"
       gradientTransform="matrix(1.0362862,0,0,0.89403617,80.666786,-16.897875)"
       gradientUnits="userSpaceOnUse"
       xlink:href="#linearGradient3333-4"
       id="linearGradient4033"
       y2="15.737678"
       x2="25.525208"
       y1="30.188753"
       x1="25.525208" />
    <linearGradient
       gradientTransform="matrix(0.97973275,0,0,0.99399695,81.978014,-8.1779834)"
       gradientUnits="userSpaceOnUse"
       xlink:href="#linearGradient3333-4"
       id="linearGradient4030"
       y2="24.627615"
       x2="20.054544"
       y1="15.298182"
       x1="16.626165" />
    <linearGradient
       gradientTransform="matrix(1.2162162,0,0,0.72972967,76.34822,-5.8597432)"
       gradientUnits="userSpaceOnUse"
       xlink:href="#linearGradient3924-803-0"
       id="linearGradient4027"
       y2="43"
       x2="23.99999"
       y1="4.999989"
       x1="23.99999" />
    <linearGradient
       id="linearGradient3924-803-0">
      <stop
         offset="0"
         style="stop-color:#ffffff;stop-opacity:1"
         id="stop3252-06" />
      <stop
         offset="0.06316455"
         style="stop-color:#ffffff;stop-opacity:0.23529412"
         id="stop3254-1" />
      <stop
         offset="0.95056331"
         style="stop-color:#ffffff;stop-opacity:0.15686275"
         id="stop3256-0" />
      <stop
         offset="1"
         style="stop-color:#ffffff;stop-opacity:0.39215687"
         id="stop3258-2" />
    </linearGradient>
    <linearGradient
       gradientTransform="matrix(-1.4102551,0,0,1.4102551,139.39181,-15.192358)"
       gradientUnits="userSpaceOnUse"
       xlink:href="#linearGradient3856-8-9"
       id="linearGradient4012"
       y2="3.8990016"
       x2="24"
       y1="44"
       x1="24" />
    <linearGradient
       id="linearGradient3856-8-9">
      <stop
         offset="0"
         style="stop-color:#b67926;stop-opacity:1"
         id="stop3858-7-5" />
      <stop
         offset="1"
         style="stop-color:#eab41a;stop-opacity:1"
         id="stop3860-2-2" />
    </linearGradient>
    <linearGradient
       spreadMethod="reflect"
       gradientTransform="matrix(1.0362862,0,0,0.89403617,80.666786,-14.930853)"
       gradientUnits="userSpaceOnUse"
       xlink:href="#linearGradient3866-6"
       id="linearGradient4009"
       y2="15.737678"
       x2="25.525208"
       y1="35.429005"
       x1="25.525208" />
    <linearGradient
       id="linearGradient3866-6">
      <stop
         offset="0"
         style="stop-color:#969696;stop-opacity:1"
         id="stop3868-7" />
      <stop
         offset="0.5"
         style="stop-color:#858585;stop-opacity:0.63478261"
         id="stop3872-0" />
      <stop
         offset="1"
         style="stop-color:#939393;stop-opacity:0"
         id="stop3870-0" />
    </linearGradient>
    <linearGradient
       gradientTransform="matrix(1.4102551,0,0,1.4102551,71.373216,-5.6239053)"
       gradientUnits="userSpaceOnUse"
       xlink:href="#linearGradient3924-803-0"
       id="linearGradient4015-9"
       y2="37.992332"
       x2="23.99999"
       y1="4.999989"
       x1="23.99999" />
    <linearGradient
       gradientTransform="matrix(1.3333334,0,0,1.3333334,72.037406,-13.179569)"
       xlink:href="#linearGradient4833"
       id="linearGradient4839"
       x1="4.8918934"
       y1="37.092773"
       x2="7.5"
       y2="37.092773"
       gradientUnits="userSpaceOnUse" />
    <linearGradient
       id="linearGradient4833">
      <stop
         style="stop-color:#956500;stop-opacity:1;"
         offset="0"
         id="stop4835" />
      <stop
         style="stop-color:#956500;stop-opacity:0;"
         offset="1"
         id="stop4837" />
    </linearGradient>
    <linearGradient
       gradientTransform="matrix(-1.3333334,0,0,1.3333334,139.03741,-13.179569)"
       xlink:href="#linearGradient4833"
       id="linearGradient4839-9"
       x1="4.8918934"
       y1="37.092773"
       x2="7.5"
       y2="37.092773"
       gradientUnits="userSpaceOnUse" />
    <linearGradient
       gradientTransform="matrix(1.4210527,0,0,1.4339623,71.432142,-16.950009)"
       gradientUnits="userSpaceOnUse"
       xlink:href="#linearGradient3909-3-9"
       id="linearGradient4018-0"
       y2="6"
       x2="15"
       y1="32"
       x1="15" />
    <linearGradient
       id="linearGradient3909-3-9">
      <stop
         offset="0"
         style="stop-color:#fff0bf;stop-opacity:1"
         id="stop3911-8-7" />
      <stop
         offset="1"
         style="stop-color:#fdde76;stop-opacity:1"
         id="stop3913-4-2" />
    </linearGradient>
    <linearGradient
       gradientTransform="matrix(1.4324324,0,0,1.4324324,71.159031,-15.7246)"
       gradientUnits="userSpaceOnUse"
       xlink:href="#linearGradient3924-803-0"
       id="linearGradient3107-996"
       y2="43"
       x2="23.99999"
       y1="4.999989"
       x1="23.99999" />
  </defs>
  <metadata
     id="metadata4537">
    <rdf:RDF>
      <cc:Work
         rdf:about="">
        <dc:format>image/svg+xml</dc:format>
        <dc:type
           rdf:resource="http://purl.org/dc/dcmitype/StillImage" />
        <dc:title />
      </cc:Work>
    </rdf:RDF>
  </metadata>
  <rect
     width="53"
     height="53"
     rx="2.8909092"
     ry="2.8909092"
     x="5.5"
     y="5.5"
     id="rect5505-21-7-5"
     style="color:#000000;clip-rule:nonzero;display:inline;overflow:visible;visibility:visible;opacity:1;isolation:auto;mix-blend-mode:normal;color-interpolation:sRGB;color-interpolation-filters:linearRGB;solid-color:#000000;solid-opacity:1;fill:#f9c542;fill-opacity:1;fill-rule:nonzero;stroke:none;stroke-width:0.99999994;stroke-linecap:butt;stroke-linejoin:miter;stroke-miterlimit:4;stroke-dasharray:none;stroke-dashoffset:0;stroke-opacity:1;marker:none;color-rendering:auto;image-rendering:auto;shape-rendering:auto;text-rendering:auto;enable-background:accumulate" />
  <path
     inkscape:connector-curvature="0"
     id="rect5505-21-7-5-1"
     d="M 55.5,39 C 55.777,39 56,38.777 56,38.5 V 8.5 C 56,8.223 55.777,8 55.5,8 H 8.5 C 8.223,8 8,8.223 8,8.5 v 30 C 8,38.777 8.223,39 8.5,39 Z"
     style="color:#000000;clip-rule:nonzero;display:inline;overflow:visible;visibility:visible;opacity:1;isolation:auto;mix-blend-mode:normal;color-interpolation:sRGB;color-interpolation-filters:linearRGB;solid-color:#000000;solid-opacity:1;fill:#e4ba39;fill-opacity:1;fill-rule:nonzero;stroke:none;stroke-width:1;stroke-linecap:round;stroke-linejoin:round;stroke-miterlimit:4;stroke-dasharray:none;stroke-dashoffset:0;stroke-opacity:1;marker:none;color-rendering:auto;image-rendering:auto;shape-rendering:auto;text-rendering:auto;enable-background:accumulate" />
  <path
     inkscape:connector-curvature="0"
     d="M 16,39.0625 V 42 h 3 v 4.09375 H 45 V 42 h 3 V 39.0625 H 45 19 Z"
     id="rect4813"
     style="color:#000000;display:inline;overflow:visible;visibility:visible;fill:#b3b3b3;fill-opacity:1;fill-rule:nonzero;stroke:none;stroke-width:1;marker:none;enable-background:accumulate" />
  <path
     inkscape:connector-curvature="0"
     d="M 19.011662,43.5 H 44.988337"
     id="path4815"
     style="opacity:0.2;fill:none;stroke:#000000;stroke-width:1px;stroke-linecap:butt;stroke-linejoin:miter;stroke-opacity:1" />
  <path
     inkscape:connector-curvature="0"
     d="M 19.307729,45.397425 H 44.692321"
     id="path4815-2"
     style="opacity:0.17000002;fill:none;stroke:#000000;stroke-width:1px;stroke-linecap:butt;stroke-linejoin:miter;stroke-opacity:1" />
  <rect
     width="44"
     height="28"
     rx="2.6978791"
     ry="2.7232511"
     x="10"
     y="12"
     id="rect2396-9-0"
     style="display:inline;overflow:visible;visibility:visible;fill:#8f8f8f;fill-opacity:1;fill-rule:evenodd;stroke:none;stroke-width:0.99999994;marker:none;enable-background:accumulate" />
  <rect
     width="44"
     height="26.999996"
     rx="1.5762728"
     ry="1.5470712"
     x="10"
     y="12"
     id="rect2396-9"
     style="display:inline;overflow:visible;visibility:visible;fill:#f2f2f2;fill-opacity:1;fill-rule:evenodd;stroke:none;stroke-width:0.99999988;marker:none;enable-background:accumulate" />
  <path
     inkscape:connector-curvature="0"
     d="M 25,25.515581 12.498059,36.178067 Z m 14,0.08977 12.631975,10.348623 z"
     id="path3341-2"
     style="display:inline;overflow:visible;visibility:visible;fill:none;stroke:#bebebe;stroke-width:0.99999994;stroke-linecap:butt;stroke-linejoin:miter;stroke-miterlimit:4;stroke-dasharray:none;stroke-dashoffset:0;stroke-opacity:1;marker:none;enable-background:accumulate"
     sodipodi:nodetypes="cccccc" />
  <rect
     width="45"
     height="29"
     rx="1.5"
     ry="1.5"
     x="9.5"
     y="9.5"
     id="rect2396-9-3"
     style="display:inline;overflow:visible;visibility:visible;opacity:0.1;fill:none;stroke:#000000;stroke-width:1;stroke-opacity:1;marker:none;enable-background:accumulate" />
  <path
     inkscape:connector-curvature="0"
     d="M 10.483533,13.706442 32.000248,30.368591 53.842146,13.594397"
     id="path3341-2-2"
     style="display:inline;overflow:visible;visibility:visible;fill:none;stroke:#bebebe;stroke-width:0.99999994;stroke-linecap:butt;stroke-linejoin:miter;stroke-miterlimit:4;stroke-dasharray:none;stroke-dashoffset:0;stroke-opacity:1;marker:none;enable-background:accumulate" />
  <path
     inkscape:connector-curvature="0"
     d="M 19.011662,41.5 H 44.988337"
     id="path4815-8"
     style="opacity:0.2;fill:none;stroke:#000000;stroke-width:1px;stroke-linecap:butt;stroke-linejoin:miter;stroke-opacity:1" />
  <path
     style="color:#000000;display:inline;overflow:visible;visibility:visible;opacity:0.3;fill:none;stroke:#b67926;stroke-width:0.99999994;stroke-linejoin:miter;stroke-miterlimit:4;stroke-dasharray:none;stroke-opacity:1;marker:none;enable-background:accumulate"
     id="path1038"
     d="m 9.93498,9.5211556 c -0.444073,0 -0.4177182,0.041215 -0.4177182,0.3706707 V 37.950488 c 0,0.611414 -0.077034,0.818604 0.7126522,0.818604 h 6.457141 c 1.666015,0 2.815587,1.317513 2.815587,3.179985 v 3.644533 h 24.977562 v -4.103854 c 0,-1.372898 1.300101,-2.720664 2.644093,-2.720664 h 6.897416 c 0.488775,0 0.477769,-0.01514 0.477769,-0.510304 V 9.874936 c 0,-0.4772341 -0.02038,-0.3537804 -0.436184,-0.3537804 z"
     inkscape:connector-curvature="0"
     sodipodi:nodetypes="ssssssccsssssss" />
  <path
     inkscape:connector-curvature="0"
     id="path4246"
     d="M 8,6 C 7,6 6,7 6,8 V 39.5 C 6,40.885 7.115,42 8.5,42 H 11.0625 13.96875 19 V 41.5 C 19,40.115 17.885,39 16.5,39 h -2.4375 -1.5 H 11 C 10,39 9,38 9,37 V 11 c 0,-1 1,-2 2,-2 h 42 c 1,0 2,0.9999987 2,2 v 26 c 0,1 -1,2 -2,2 H 50.481753 47.5 C 46.115,39 45,40.115 45,41.5 V 42 h 7.981753 2.5625 c 1.385,0 2.501946,-1.115001 2.5,-2.5 L 58,8 C 57.998595,7 57,6 56,6 Z m 11,37.5 v 3 c 0,1.385 1.115,2.5 2.5,2.5 h 21 c 1.385,0 2.5,-1.115 2.5,-2.5 v -3 c 0,1.385 -1.115,2.5 -2.5,2.5 h -21 C 20.115,46 19,44.885 19,43.5 Z"
     style="color:#000000;display:inline;overflow:visible;visibility:visible;fill:#ffe37d;fill-opacity:1;fill-rule:nonzero;stroke:none;stroke-width:1;marker:none;enable-background:accumulate"
     sodipodi:nodetypes="sssscccssccsssssssscssccssssscsssscssc" />
  <rect
     width="53"
     height="53"
     rx="2.7033899"
     ry="2.7711864"
     x="5.5"
     y="5.5"
     id="rect5505-21"
     style="color:#000000;clip-rule:nonzero;display:inline;overflow:visible;visibility:visible;opacity:0.5;isolation:auto;mix-blend-mode:normal;color-interpolation:sRGB;color-interpolation-filters:linearRGB;solid-color:#000000;solid-opacity:1;fill:none;fill-opacity:1;fill-rule:evenodd;stroke:#956500;stroke-width:1.00000012px;stroke-linecap:butt;stroke-linejoin:miter;stroke-miterlimit:4;stroke-dasharray:none;stroke-dashoffset:0;stroke-opacity:1;marker:none;color-rendering:auto;image-rendering:auto;shape-rendering:auto;text-rendering:auto;enable-background:accumulate" />
  <rect
     style="display:inline;overflow:visible;visibility:visible;opacity:0.1;fill:none;stroke:#000000;stroke-width:0.99999994;stroke-opacity:1;marker:none;enable-background:accumulate"
     id="rect1036"
     y="11.499999"
     x="9.5"
     ry="1.9694941"
     rx="2.0253663"
     height="26.999998"
     width="45" />
</svg>

<svg xmlns="http://www.w3.org/2000/svg" height="64" width="64"><rect width="53" height="53" rx="2.891" ry="2.891" x="5.5" y="5.5" style="isolation:auto;mix-blend-mode:normal;solid-color:#000;solid-opacity:1;marker:none" color="#000" overflow="visible" fill="#f9c542"/><path d="M55.5 39c.277 0 .5-.223.5-.5v-30c0-.277-.223-.5-.5-.5h-47c-.277 0-.5.223-.5.5v30c0 .277.223.5.5.5z" style="isolation:auto;mix-blend-mode:normal;solid-color:#000;solid-opacity:1;marker:none" color="#000" overflow="visible" fill="#e4ba39"/><path d="M16 39.063V42h3v4.094h26V42h3v-2.938H19z" style="marker:none" color="#000" overflow="visible" fill="#b3b3b3"/><path d="M19.012 43.5h25.976" opacity=".2" fill="none" stroke="#000"/><path d="M19.308 45.397h25.384" opacity=".17" fill="none" stroke="#000"/><rect width="44" height="28" rx="2.698" ry="2.723" x="10" y="12" style="marker:none" overflow="visible" fill="#8f8f8f" fill-rule="evenodd"/><rect width="44" height="27" rx="1.576" ry="1.547" x="10" y="12" style="marker:none" overflow="visible" fill="#f2f2f2" fill-rule="evenodd"/><path d="M25 25.516L12.498 36.178zm14 .09l12.632 10.348z" style="marker:none" overflow="visible" fill="none" stroke="#bebebe"/><rect width="45" height="29" rx="1.5" ry="1.5" x="9.5" y="9.5" style="marker:none" overflow="visible" opacity=".1" fill="none" stroke="#000"/><path d="M10.484 13.706L32 30.37l21.842-16.775" style="marker:none" overflow="visible" fill="none" stroke="#bebebe"/><path d="M19.012 41.5h25.976" opacity=".2" fill="none" stroke="#000"/><path style="marker:none" d="M9.935 9.521c-.444 0-.418.041-.418.37v28.06c0 .61-.077.818.713.818h6.457c1.666 0 2.816 1.318 2.816 3.18v3.645H44.48V41.49c0-1.373 1.3-2.72 2.644-2.72h6.898c.488 0 .477-.016.477-.511V9.875c0-.477-.02-.354-.436-.354z" color="#000" overflow="visible" opacity=".3" fill="none" stroke="#b67926"/><path d="M8 6C7 6 6 7 6 8v31.5C6 40.885 7.115 42 8.5 42H19v-.5c0-1.385-1.115-2.5-2.5-2.5H11c-1 0-2-1-2-2V11c0-1 1-2 2-2h42c1 0 2 1 2 2v26c0 1-1 2-2 2h-5.5a2.495 2.495 0 0 0-2.5 2.5v.5h10.544a2.493 2.493 0 0 0 2.5-2.5L58 8c-.001-1-1-2-2-2zm11 37.5v3c0 1.385 1.115 2.5 2.5 2.5h21c1.385 0 2.5-1.115 2.5-2.5v-3c0 1.385-1.115 2.5-2.5 2.5h-21a2.495 2.495 0 0 1-2.5-2.5z" style="marker:none" color="#000" overflow="visible" fill="#ffe37d"/><rect width="53" height="53" rx="2.703" ry="2.771" x="5.5" y="5.5" style="isolation:auto;mix-blend-mode:normal;solid-color:#000;solid-opacity:1;marker:none" color="#000" overflow="visible" opacity=".5" fill="none" stroke="#956500"/><rect style="marker:none" y="11.5" x="9.5" ry="1.969" rx="2.025" height="27" width="45" overflow="visible" opacity=".1" fill="none" stroke="#000"/></svg>
